X:1
T:Title
%%score 1 { 2 | 3 }
L:1/8
Q:1/4=82
M:2/4
K:G
V:1 treble nm="Grand Piano, Soprano"
V:2 bass nm="Choir Pad, Jalisco, 76.76 D"
V:3 bass 
V:1
 [B,D][B,D] [DG][DG] | [DA][DA] [DB]2 | [Dc][Dc] [DA]2 | [Dd][Dd] [DB]2 | [B,D][B,D] [DG][DG] | %5
w: By~Lucy~Jane~Rider~Meyer,~1878 * * *|||||
 [DA][FA] [GB]2 | [Gd]>[Ge] [Gd][DB] | [FA] G3 | [Ge][Ge] [Gc][Ge] | [Gd][Gd] [GB]2 | %10
w: |||||
 [Ac][Ac] [FA][GB] | [FA][EG] [DF][CE] | [B,D][B,D] [DG][DG] | [DA][FA] [GB]2 | %14
w: ||||
 [Gd]>[Ge] [Gd][DB] | [FA] G3- | G4 |] %17
w: |||
V:2
 G,G, G,G, | F,F, G,2 | A,A, F,2 | B,B, G,2 | G,G, G,G, | F,[K:treble]D D2 | B,>C B,D | C B,3 | %8
 CC EC | B,B, D2 | DD DD | D[K:bass]A, A,G, | G,G, G,G, | F,[K:treble]D D2 | B,>C B,D | C B,3- | %16
 B,4 |] %17
V:3
 G,,G,, B,,B,, | D,D, z2 | D,D, D,2 | G,,G,, G,,2 | G,,G,, B,,B,, | D,D, G,2 | G,>G, G,G, | %7
 D, G,3 | C,C, C,C, | G,G, G,2 | D,D, D,G, | A,A,, D,2 | G,,G,, B,,B,, | D,D, G,2 | G,>G, G,G, | %15
 D, G,3- | G,4 |] %17

